src/assets/images/acuerdo.svg

<?xml version="1.0" encoding="iso-8859-1"?>
<!-- Generator: Adobe Illustrator 19.0.0, SVG Export Plug-In . SVG Version: 6.00 Build 0)  -->
<svg version="1.1" id="Layer_1" xmlns="http://www.w3.org/2000/svg" xmlns:xlink="http://www.w3.org/1999/xlink" x="0px" y="0px"
	 viewBox="0 0 512 512" style="enable-background:new 0 0 512 512;" xml:space="preserve">
<g>
	<g>
		<path d="M404.267,315.41c-10.048-20.949-45.995-50.027-80.725-78.123c-19.371-15.659-37.675-30.464-49.344-42.133
			c-2.923-2.944-7.296-3.883-11.157-2.496c-7.189,2.603-11.627,4.608-15.125,6.165c-5.333,2.389-7.125,3.2-14.315,3.925
			c-3.179,0.32-6.037,2.027-7.808,4.672c-15.083,22.549-30.699,20.629-41.131,17.131c-3.328-1.109-3.925-2.539-4.245-3.904
			c-2.24-9.365,9.003-31.168,23.573-45.739c34.667-34.688,52.544-43.371,90.304-26.496c42.837,19.157,85.76,34.155,86.187,34.304
			c5.611,1.941,11.648-1.003,13.589-6.571c1.92-5.568-1.003-11.648-6.571-13.589c-0.427-0.149-42.496-14.848-84.48-33.643
			c-48.917-21.867-75.755-7.467-114.091,30.891c-14.592,14.592-34.411,44.117-29.291,65.771c2.197,9.216,8.683,16.043,18.325,19.221
			c24.171,7.979,46.229,0.341,62.656-21.461c6.784-1.045,10.475-2.581,16.021-5.077c2.005-0.896,4.352-1.941,7.467-3.2
			c12.203,11.456,28.672,24.789,46.016,38.805c31.36,25.365,66.923,54.123,74.923,70.763c3.947,8.213-0.299,13.568-3.179,16.021
			c-4.224,3.627-10.005,4.779-13.141,2.581c-3.456-2.368-7.957-2.517-11.52-0.384c-3.584,2.133-5.589,6.165-5.141,10.304
			c0.725,6.784-5.483,10.667-8.171,12.011c-6.827,3.456-13.952,2.859-16.619,0.384c-2.987-2.773-7.275-3.584-11.072-2.176
			c-3.797,1.429-6.443,4.928-6.827,8.981c-0.64,6.997-5.824,13.717-12.587,16.341c-3.264,1.237-8,1.984-12.245-1.899
			c-2.645-2.389-6.315-3.307-9.749-2.475c-3.477,0.853-6.272,3.371-7.488,6.72c-0.405,1.067-1.323,3.627-11.307,3.627
			c-7.104,0-19.883-4.8-26.133-8.939c-7.488-4.928-54.443-39.957-94.997-73.92c-5.696-4.8-15.552-15.083-24.256-24.171
			c-7.723-8.064-14.784-15.381-18.411-18.453c-4.544-3.84-11.264-3.264-15.04,1.259c-3.797,4.501-3.243,11.243,1.259,15.04
			c3.307,2.795,9.707,9.557,16.768,16.917c9.515,9.941,19.349,20.224,25.963,25.771c39.723,33.259,87.467,69.163,96.981,75.413
			c7.851,5.163,24.768,12.416,37.867,12.416c10.517,0,18.603-2.411,24.213-7.125c7.509,2.923,16.043,2.944,24.256-0.256
			c9.707-3.755,17.685-11.328,22.208-20.501c8.405,1.792,18.027,0.533,26.773-3.861c8.555-4.309,14.741-10.901,17.813-18.603
			c8.491,0.448,17.237-2.56,24.469-8.768C407.979,346.407,411.349,330.109,404.267,315.41z"/>
	</g>
</g>
<g>
	<g>
		<path d="M213.333,138.663h-96c-5.888,0-10.667,4.779-10.667,10.667s4.779,10.667,10.667,10.667h96
			c5.888,0,10.667-4.779,10.667-10.667S219.221,138.663,213.333,138.663z"/>
	</g>
</g>
<g>
	<g>
		<path d="M435.52,292.711c-3.307-4.885-9.92-6.229-14.805-2.901l-31.189,20.949c-4.885,3.285-6.187,9.92-2.901,14.805
			c2.069,3.051,5.44,4.715,8.875,4.715c2.027,0,4.096-0.576,5.931-1.813l31.189-20.949
			C437.504,304.231,438.805,297.597,435.52,292.711z"/>
	</g>
</g>
<g>
	<g>
		<path d="M369.301,343.613c-7.637-6.016-41.792-40.981-62.912-62.997c-4.075-4.267-10.837-4.416-15.083-0.32
			c-4.267,4.075-4.395,10.837-0.32,15.083c5.483,5.717,53.845,56.128,65.088,65.003c1.941,1.536,4.288,2.283,6.592,2.283
			c3.136,0,6.272-1.408,8.405-4.075C374.72,353.981,373.931,347.261,369.301,343.613z"/>
	</g>
</g>
<g>
	<g>
		<path d="M326.677,365.01c-12.779-10.219-44.885-44.331-52.139-52.224c-4.011-4.352-10.731-4.608-15.083-0.64
			c-4.331,3.989-4.629,10.752-0.64,15.083c0.384,0.405,38.699,41.771,54.528,54.443c1.963,1.557,4.331,2.325,6.656,2.325
			c3.115,0,6.229-1.387,8.341-3.989C332.011,375.399,331.264,368.679,326.677,365.01z"/>
	</g>
</g>
<g>
	<g>
		<path d="M284.224,386.493c-15.211-12.821-46.336-45.952-52.416-52.459c-4.032-4.309-10.795-4.544-15.083-0.512
			c-4.309,4.032-4.523,10.773-0.512,15.083c8.747,9.365,38.528,40.939,54.251,54.208c2.005,1.685,4.437,2.517,6.869,2.517
			c3.029,0,6.059-1.301,8.171-3.797C289.301,397.01,288.725,390.29,284.224,386.493z"/>
	</g>
</g>
<g>
	<g>
		<path d="M124.672,120.253C106.389,102.93,33.28,97.319,11.307,96.018c-3.029-0.149-5.824,0.853-7.957,2.88
			C1.216,100.903,0,103.719,0,106.663v192c0,5.888,4.779,10.667,10.667,10.667h64c4.608,0,8.704-2.965,10.133-7.36
			c1.557-4.779,38.315-117.589,43.157-173.056C128.235,125.671,127.04,122.471,124.672,120.253z M66.88,287.997H21.333V118.098
			c34.283,2.709,71.275,8.597,84.715,15.125C100.395,179.943,74.816,262.951,66.88,287.997z"/>
	</g>
</g>
<g>
	<g>
		<path d="M501.333,117.33c-83.755,0-130.219,21.44-132.16,22.336c-2.773,1.301-4.843,3.712-5.696,6.635s-0.427,6.059,1.173,8.661
			c13.184,21.227,54.464,139.115,62.4,167.872c1.28,4.629,5.483,7.829,10.283,7.829h64c5.888,0,10.667-4.779,10.667-10.667v-192
			C512,122.087,507.221,117.33,501.333,117.33z M490.667,309.33h-45.355c-10.112-32.939-39.979-118.827-56.64-154.325
			c16.277-5.525,51.243-15.019,101.995-16.213V309.33z"/>
	</g>
</g>
<g>
</g>
<g>
</g>
<g>
</g>
<g>
</g>
<g>
</g>
<g>
</g>
<g>
</g>
<g>
</g>
<g>
</g>
<g>
</g>
<g>
</g>
<g>
</g>
<g>
</g>
<g>
</g>
<g>
</g>
</svg>

<?xml version="1.0" encoding="UTF-8" standalone="no"?><!-- Generator: Gravit.io --><svg xmlns="http://www.w3.org/2000/svg" xmlns:xlink="http://www.w3.org/1999/xlink" style="isolation:isolate" viewBox="0 0 512 512" width="512pt" height="512pt"><defs><clipPath id="_clipPath_eSxXZ9aUn5wgUCtKi6Vurz13xI5zo33x"><rect width="512" height="512"/></clipPath></defs><g clip-path="url(#_clipPath_eSxXZ9aUn5wgUCtKi6Vurz13xI5zo33x)"><path d=" M 364.108 153.946 C 348.293 147.98 325.644 139.041 303.019 128.913 C 264.527 111.706 239.706 116.955 212.197 138.663 L 126.866 138.663 L 126.866 138.663 C 127.32 135.255 127.688 131.996 127.957 128.914 C 128.235 125.671 127.04 122.471 124.672 120.253 L 124.672 120.253 C 106.389 102.93 33.28 97.319 11.307 96.018 C 8.278 95.869 5.483 96.871 3.35 98.898 C 1.216 100.903 0 103.719 0 106.663 L 0 298.663 C 0 304.551 4.779 309.33 10.667 309.33 L 74.667 309.33 C 79.275 309.33 83.371 306.365 84.8 301.97 C 85.024 301.282 85.979 298.353 87.294 294.195 C 89.642 296.599 92.363 299.449 95.189 302.395 C 104.704 312.336 114.538 322.619 121.152 328.166 C 160.875 361.425 208.619 397.329 218.133 403.579 C 225.984 408.742 242.901 415.995 256 415.995 C 266.517 415.995 274.603 413.584 280.213 408.87 C 287.722 411.793 296.256 411.814 304.469 408.614 C 314.176 404.859 322.154 397.286 326.677 388.113 C 335.082 389.905 344.704 388.646 353.45 384.252 C 362.005 379.943 368.191 373.351 371.263 365.649 C 379.754 366.097 388.5 363.089 395.732 356.881 C 405.487 348.539 409.61 336.501 407.305 324.52 L 424.186 313.182 C 425.375 317.017 426.344 320.278 427.05 322.834 C 428.33 327.463 432.533 330.663 437.333 330.663 L 501.333 330.663 C 507.221 330.663 512 325.884 512 319.996 L 512 127.996 C 512 122.087 507.221 117.33 501.333 117.33 L 501.333 117.33 C 417.578 117.33 371.114 138.77 369.173 139.666 C 366.4 140.967 364.33 143.378 363.477 146.301 C 362.732 148.854 362.963 151.569 364.108 153.946 Z  M 376.955 181.456 C 366.259 177.639 330.246 164.49 294.294 148.412 C 256.534 131.537 238.657 140.22 203.99 174.908 C 189.42 189.479 178.177 211.282 180.417 220.647 C 180.737 222.012 181.334 223.442 184.662 224.551 C 195.094 228.049 210.71 229.969 225.793 207.42 C 227.564 204.775 230.422 203.068 233.601 202.748 C 240.791 202.023 242.583 201.212 247.916 198.823 C 251.414 197.266 255.852 195.261 263.041 192.658 C 266.902 191.271 271.275 192.21 274.198 195.154 C 285.867 206.823 304.171 221.628 323.542 237.287 C 352.91 261.046 383.149 285.506 397.862 305.16 L 417.351 292.069 C 406.4 259.227 389.479 211.907 376.955 181.456 Z  M 123.316 159.997 L 188.736 159.997 C 174.163 174.655 154.539 204.016 159.637 225.575 C 161.834 234.791 168.32 241.618 177.962 244.796 C 202.133 252.775 224.191 245.137 240.618 223.335 C 247.402 222.29 251.093 220.754 256.639 218.258 C 258.644 217.362 260.991 216.317 264.106 215.058 C 276.309 226.514 292.778 239.847 310.122 253.863 C 341.482 279.228 377.045 307.986 385.045 324.626 C 388.992 332.839 384.746 338.194 381.866 340.647 C 377.831 344.112 372.375 345.318 369.164 343.5 C 361.307 337.232 327.399 302.517 306.389 280.616 C 302.314 276.349 295.552 276.2 291.306 280.296 C 287.039 284.371 286.911 291.133 290.986 295.379 C 295.933 300.538 335.792 342.085 351.794 356.676 C 350.571 361.307 346.074 364.069 343.893 365.159 C 337.164 368.565 330.145 368.034 327.393 365.648 C 327.17 365.423 326.93 365.212 326.677 365.01 C 313.898 354.791 281.792 320.679 274.538 312.786 C 270.527 308.434 263.807 308.178 259.455 312.146 C 255.124 316.135 254.826 322.898 258.815 327.229 C 259.162 327.595 290.448 361.372 308.171 377.252 C 306.172 382.318 301.938 386.691 296.788 388.689 C 293.575 389.907 288.936 390.649 284.744 386.964 C 284.578 386.802 284.404 386.645 284.224 386.493 C 269.013 373.672 237.888 340.541 231.808 334.034 C 227.776 329.725 221.013 329.49 216.725 333.522 C 212.416 337.554 212.202 344.295 216.213 348.605 C 223.428 356.33 244.955 379.166 261.091 394.366 C 259.741 394.552 258.064 394.662 255.999 394.662 C 248.895 394.662 236.116 389.862 229.866 385.723 C 222.378 380.795 175.423 345.766 134.869 311.803 C 129.173 307.003 119.317 296.72 110.613 287.632 C 104.238 280.976 98.315 274.829 94.439 271.204 C 103.399 241.586 116.24 196.62 123.316 159.997 L 123.316 159.997 Z  M 66.88 287.997 L 21.333 287.997 L 21.333 118.098 C 55.616 120.807 92.608 126.695 106.048 133.223 C 100.395 179.943 74.816 262.951 66.88 287.997 L 66.88 287.997 L 66.88 287.997 Z  M 490.667 309.33 L 445.312 309.33 C 435.2 276.391 405.333 190.503 388.672 155.005 C 404.949 149.48 439.915 139.986 490.667 138.792 L 490.667 309.33 L 490.667 309.33 L 490.667 309.33 Z " fill-rule="evenodd" fill="rgb(90,90,90)"/></g></svg>
